src/icons/file-xml.svg

<?xml version="1.0" encoding="UTF-8" standalone="no"?>
<svg
   version="1.2"
   viewBox="0 0 16 16"
   width="16"
   height="16"
   id="svg1"
   sodipodi:docname="xml(1).svg"
   inkscape:version="1.4 (e7c3feb100, 2024-10-09)"
   xmlns:inkscape="http://www.inkscape.org/namespaces/inkscape"
   xmlns:sodipodi="http://sodipodi.sourceforge.net/DTD/sodipodi-0.dtd"
   xmlns="http://www.w3.org/2000/svg"
   xmlns:svg="http://www.w3.org/2000/svg">
  <defs
     id="defs1" />
  <sodipodi:namedview
     id="namedview1"
     pagecolor="#505050"
     bordercolor="#eeeeee"
     borderopacity="1"
     inkscape:showpageshadow="0"
     inkscape:pageopacity="0"
     inkscape:pagecheckerboard="0"
     inkscape:deskcolor="#505050"
     inkscape:zoom="36.8125"
     inkscape:cx="8.0135823"
     inkscape:cy="8.0135823"
     inkscape:window-width="1326"
     inkscape:window-height="755"
     inkscape:window-x="20"
     inkscape:window-y="52"
     inkscape:window-maximized="0"
     inkscape:current-layer="svg1" />
  <title
     id="title1">tiny-square-svg</title>
  <style
     id="style1">
		.s0 { fill: #5bafd4 } 
		.s1 { fill: #000000 } 
	</style>
  <g
     id="Layer 1">
    <path
       id="path1"
       class="s0"
       d="M 6.1992188 3 C 5.0992188 3 4.4996094 2.9992187 4.0996094 3.1992188 C 3.6996094 3.3992188 3.3992187 3.6996094 3.1992188 4.0996094 C 2.9992187 4.4996094 3 5.0992188 3 6.1992188 L 3 9.8007812 C 3 10.900781 2.9992187 11.500391 3.1992188 11.900391 C 3.3992187 12.300391 3.6996094 12.600781 4.0996094 12.800781 C 4.4996094 13.000781 5.0992188 13 6.1992188 13 L 9.8007812 13 C 10.900781 13 11.500391 13.000781 11.900391 12.800781 C 12.300391 12.600781 12.600781 12.300391 12.800781 11.900391 C 13.000781 11.500391 13 10.900781 13 9.8007812 L 13 6.1992188 C 13 5.0992188 13.000781 4.4996094 12.800781 4.0996094 C 12.600781 3.6996094 12.300391 3.3992188 11.900391 3.1992188 C 11.500391 2.9992187 10.900781 3 9.8007812 3 L 6.1992188 3 z M 6.5996094 6.0996094 C 6.7329427 6.0996094 6.833724 6.1674479 6.9003906 6.3007812 C 7.033724 6.3674479 7.0996094 6.4992188 7.0996094 6.6992188 C 7.0996094 6.8325521 7.0666667 6.9333333 7 7 L 6.8007812 7.1992188 C 6.6674479 7.2658854 6.5666667 7.3007812 6.5 7.3007812 L 4.9003906 8 L 6.5 8.6992188 C 6.5666667 8.6992187 6.6674479 8.7341146 6.8007812 8.8007812 L 7 9 C 7.0666667 9.0666667 7.0996094 9.1674479 7.0996094 9.3007812 C 7.0996094 9.5007812 7.033724 9.6325521 6.9003906 9.6992188 C 6.833724 9.8325521 6.7329427 9.9003906 6.5996094 9.9003906 C 6.5329427 9.9003906 6.4670573 9.8674479 6.4003906 9.8007812 L 4.3007812 8.8007812 C 4.1674479 8.7341146 4.0666667 8.6333333 4 8.5 C 3.9333333 8.4333333 3.9003906 8.2996094 3.9003906 8.0996094 L 3.9003906 7.9003906 C 3.9003906 7.7003906 3.9333333 7.5666667 4 7.5 C 4.0666667 7.3666667 4.1674479 7.2658854 4.3007812 7.1992188 L 6.4003906 6.1992188 C 6.4670573 6.1325521 6.5329427 6.0996094 6.5996094 6.0996094 z M 9.3007812 6.0996094 C 9.3674479 6.0996094 9.4333333 6.1325521 9.5 6.1992188 L 11.599609 7.1992188 C 11.732943 7.2658854 11.833724 7.3666667 11.900391 7.5 C 12.033724 7.5666667 12.099609 7.7003906 12.099609 7.9003906 L 12.099609 8.0996094 C 12.099609 8.2996094 12.033724 8.4333333 11.900391 8.5 C 11.833724 8.6333333 11.732943 8.7341146 11.599609 8.8007812 L 9.5 9.8007812 C 9.4333333 9.8674479 9.3674479 9.9003906 9.3007812 9.9003906 C 9.1674479 9.9003906 9.0666667 9.8325521 9 9.6992188 C 8.8666667 9.6325521 8.8007812 9.5007812 8.8007812 9.3007812 C 8.8007812 9.1674479 8.833724 9.0666667 8.9003906 9 L 9.0996094 8.8007812 C 9.2329427 8.7341146 9.333724 8.6992188 9.4003906 8.6992188 L 11 8 L 9.4003906 7.3007812 C 9.333724 7.3007812 9.2329427 7.2658854 9.0996094 7.1992188 L 8.9003906 7 C 8.833724 6.9333333 8.8007812 6.8325521 8.8007812 6.6992188 C 8.8007812 6.4992188 8.8666667 6.3674479 9 6.3007812 C 9.0666667 6.1674479 9.1674479 6.0996094 9.3007812 6.0996094 z " />
  </g>
</svg>

<svg xmlns="http://www.w3.org/2000/svg" width="16" height="16" version="1.2"><path d="M6.2 3c-1.1 0-1.7 0-2.1.2q-.6.3-.9.9c-.2.4-.2 1-.2 2.1v3.6c0 1.1 0 1.7.2 2.1q.3.6.9.9c.4.2 1 .2 2.1.2h3.6c1.1 0 1.7 0 2.1-.2q.6-.3.9-.9c.2-.4.2-1 .2-2.1V6.2c0-1.1 0-1.7-.2-2.1q-.3-.6-.9-.9c-.4-.2-1-.2-2.1-.2zm.4 3.1q.2 0 .3.2.2.1.2.4 0 .2-.1.3l-.2.2q-.2.1-.3.1L4.9 8l1.6.7q.1 0 .3.1L7 9q.1.1.1.3 0 .3-.2.4-.1.2-.3.2-.1 0-.2-.1l-2.1-1a.66.66 0 0 1-.3-.3q-.1-.1-.1-.4v-.2q0-.3.1-.4a.66.66 0 0 1 .3-.3l2.1-1q.1-.1.2-.1m2.7 0q.1 0 .2.1l2.1 1a.66.66 0 0 1 .3.3q.2.1.2.4v.2q0 .3-.2.4a.66.66 0 0 1-.3.3l-2.1 1q-.1.1-.2.1-.2 0-.3-.2-.2-.1-.2-.4 0-.2.1-.3l.2-.2q.2-.1.3-.1L11 8l-1.6-.7q-.1 0-.3-.1L8.9 7q-.1-.1-.1-.3 0-.3.2-.4.1-.2.3-.2" style="fill:#5bafd4"/></svg>
